public/style/workarea/images/icons/exe-settings-icon.svg

<svg fill="none" height="20" viewBox="0 0 20 20" width="20" xmlns="http://www.w3.org/2000/svg" xmlns:xlink="http://www.w3.org/1999/xlink"><clipPath id="a"><path d="m-.000244 0h20v20h-20z"/></clipPath><g clip-path="url(#a)" stroke="#6b7280" stroke-linecap="round" stroke-linejoin="round" stroke-width="1.8"><path d="m9.99976 12.5c1.38074 0 2.50004-1.1193 2.50004-2.5 0-1.38071-1.1193-2.5-2.50004-2.5-1.38072 0-2.5 1.11929-2.5 2.5 0 1.3807 1.11928 2.5 2.5 2.5z"/><path d="m16.1663 12.5c-.1109.2514-.144.5302-.095.8005.0491.2703.1779.5198.37.7162l.05.05c.155.1548.2779.3386.3618.5409s.1271.4192.1271.6382c0 .2191-.0432.4359-.1271.6383-.0839.2023-.2068.3861-.3618.5409-.1547.155-.3386.2779-.5409.3618-.2023.0838-.4192.127-.6382.127-.2191 0-.4359-.0432-.6383-.127-.2023-.0839-.3861-.2068-.5409-.3618l-.05-.05c-.1964-.1921-.4458-.321-.7162-.37-.2703-.049-.5491-.0159-.8005.095-.2464.1056-.4566.281-.6047.5046s-.2275.4856-.2286.7537v.1417c0 .442-.1756.866-.4881 1.1785-.3126.3126-.7365.4882-1.1786.4882-.44199 0-.86591-.1756-1.17847-.4882-.31256-.3125-.48816-.7365-.48816-1.1785v-.075c-.00645-.2758-.09573-.5433-.25624-.7677-.1605-.2245-.38481-.3954-.64376-.4906-.25134-.111-.53016-.144-.80049-.095s-.51977.1779-.71617.37l-.05.05c-.15479.1549-.33861.2779-.54094.3617-.20233.0839-.4192.1271-.63823.1271s-.4359-.0432-.63823-.1271c-.20233-.0838-.38615-.2068-.54094-.3617-.15496-.1548-.27789-.3386-.36176-.541-.08388-.2023-.12705-.4192-.12705-.6382s.04317-.4359.12705-.6382c.08387-.2024.2068-.3862.36176-.541l.05-.05c.19212-.1964.32099-.4458.37001-.7161.04901-.2704.01592-.5492-.09501-.8005-.10563-.2465-.28103-.4567-.50461-.6048-.22357-.148-.48556-.2275-.75372-.2286h-.14167c-.44202 0-.86595-.1756-1.17851-.4881-.31256-.3126-.488152-.7365-.488152-1.1785 0-.44205.175592-.86597.488152-1.17853.31256-.31257.73649-.48816 1.17851-.48816h.075c.27583-.00645.54334-.09574.76775-.25624.22442-.16051.39535-.38481.49059-.64376.11093-.25135.14402-.53016.095-.80049-.04901-.27033-.17789-.51978-.37-.71618l-.05-.05c-.15496-.15479-.27789-.3386-.36177-.54093-.08387-.20233-.12704-.41921-.12704-.63823 0-.21903.04317-.43591.12704-.63824.08388-.20233.20681-.38614.36177-.54093.15479-.15496.3386-.27789.54093-.36177.20233-.08387.41921-.12704.63823-.12704.21903 0 .43591.04317.63824.12704.20233.08388.38614.20681.54093.36177l.05.05c.1964.19211.44585.32099.71618.37.27033.04902.54914.01593.80049-.095h.06666c.24648-.10564.45668-.28104.60475-.50461.14806-.22358.22752-.48557.22859-.75372v-.14167c0-.44203.17559-.86595.48815-1.17851s.73649-.488156 1.17851-.488156c.44203 0 .86593.175596 1.17853.488156.3125.31256.4881.73648.4881 1.17851v.075c.0011.26816.0806.53015.2286.75372.1481.22358.3583.39898.6048.50461.2513.11093.5301.14402.8005.09501.2703-.04902.5197-.17789.7161-.37001l.05-.05c.1548-.15496.3386-.27789.541-.36176.2023-.08388.4192-.12705.6382-.12705s.4359.04317.6382.12705c.2024.08387.3862.2068.541.36176.1549.15479.2779.33861.3617.54094.0839.20233.1271.4192.1271.63823s-.0432.4359-.1271.63823c-.0838.20233-.2068.38615-.3617.54094l-.05.05c-.1921.1964-.321.44584-.37.71617s-.016.54915.095.80049v.06667c.1056.24647.281.45668.5046.60474.2236.14807.4856.22752.7537.22859h.1417c.442 0 .8659.1756 1.1785.48816.3125.31256.4881.73648.4881 1.1785 0 .442-.1756.866-.4881 1.1785-.3126.3126-.7365.4882-1.1785.4882h-.075c-.2682.001-.5302.0805-.7537.2286-.2236.148-.399.3582-.5047.6047z"/></g></svg>

<svg width="20" height="20" viewBox="0 0 20 20" fill="none" xmlns="http://www.w3.org/2000/svg">
<g clip-path="url(#clip0_17_866)">
<path d="M9.99976 12.5C11.3805 12.5 12.4998 11.3807 12.4998 10C12.4998 8.61929 11.3805 7.5 9.99976 7.5C8.61904 7.5 7.49976 8.61929 7.49976 10C7.49976 11.3807 8.61904 12.5 9.99976 12.5Z" stroke="#6B7280" stroke-width="1.8" stroke-linecap="round" stroke-linejoin="round"/>
<path d="M16.1663 12.5C16.0554 12.7514 16.0223 13.0302 16.0713 13.3005C16.1204 13.5708 16.2492 13.8203 16.4413 14.0167L16.4913 14.0667C16.6463 14.2215 16.7692 14.4053 16.8531 14.6076C16.937 14.8099 16.9802 15.0268 16.9802 15.2458C16.9802 15.4649 16.937 15.6817 16.8531 15.8841C16.7692 16.0864 16.6463 16.2702 16.4913 16.425C16.3366 16.58 16.1527 16.7029 15.9504 16.7868C15.7481 16.8706 15.5312 16.9138 15.3122 16.9138C15.0931 16.9138 14.8763 16.8706 14.6739 16.7868C14.4716 16.7029 14.2878 16.58 14.133 16.425L14.083 16.375C13.8866 16.1829 13.6372 16.054 13.3668 16.005C13.0965 15.956 12.8177 15.9891 12.5663 16.1C12.3199 16.2056 12.1097 16.381 11.9616 16.6046C11.8135 16.8282 11.7341 17.0902 11.733 17.3583V17.5C11.733 17.942 11.5574 18.366 11.2449 18.6785C10.9323 18.9911 10.5084 19.1667 10.0663 19.1667C9.62431 19.1667 9.20039 18.9911 8.88783 18.6785C8.57527 18.366 8.39967 17.942 8.39967 17.5V17.425C8.39322 17.1492 8.30394 16.8817 8.14343 16.6573C7.98293 16.4328 7.75862 16.2619 7.49967 16.1667C7.24833 16.0557 6.96951 16.0227 6.69918 16.0717C6.42885 16.1207 6.17941 16.2496 5.98301 16.4417L5.93301 16.4917C5.77822 16.6466 5.5944 16.7696 5.39207 16.8534C5.18974 16.9373 4.97287 16.9805 4.75384 16.9805C4.53481 16.9805 4.31794 16.9373 4.11561 16.8534C3.91328 16.7696 3.72946 16.6466 3.57467 16.4917C3.41971 16.3369 3.29678 16.1531 3.21291 15.9507C3.12903 15.7484 3.08586 15.5315 3.08586 15.3125C3.08586 15.0935 3.12903 14.8766 3.21291 14.6743C3.29678 14.4719 3.41971 14.2881 3.57467 14.1333L3.62467 14.0833C3.81679 13.8869 3.94566 13.6375 3.99468 13.3672C4.04369 13.0968 4.0106 12.818 3.89967 12.5667C3.79404 12.3202 3.61864 12.11 3.39506 11.9619C3.17149 11.8139 2.9095 11.7344 2.64134 11.7333H2.49967C2.05765 11.7333 1.63372 11.5577 1.32116 11.2452C1.0086 10.9326 0.833008 10.5087 0.833008 10.0667C0.833008 9.62465 1.0086 9.20073 1.32116 8.88817C1.63372 8.5756 2.05765 8.40001 2.49967 8.40001H2.57467C2.8505 8.39356 3.11801 8.30427 3.34242 8.14377C3.56684 7.98326 3.73777 7.75896 3.83301 7.50001C3.94394 7.24866 3.97703 6.96985 3.92801 6.69952C3.879 6.42919 3.75012 6.17974 3.55801 5.98334L3.50801 5.93334C3.35305 5.77855 3.23012 5.59474 3.14624 5.39241C3.06237 5.19008 3.0192 4.9732 3.0192 4.75418C3.0192 4.53515 3.06237 4.31827 3.14624 4.11594C3.23012 3.91361 3.35305 3.7298 3.50801 3.57501C3.6628 3.42005 3.84661 3.29712 4.04894 3.21324C4.25127 3.12937 4.46815 3.0862 4.68717 3.0862C4.9062 3.0862 5.12308 3.12937 5.32541 3.21324C5.52774 3.29712 5.71155 3.42005 5.86634 3.57501L5.91634 3.62501C6.11274 3.81712 6.36219 3.946 6.63252 3.99501C6.90285 4.04403 7.18166 4.01094 7.43301 3.90001H7.49967C7.74615 3.79437 7.95635 3.61897 8.10442 3.3954C8.25248 3.17182 8.33194 2.90983 8.33301 2.64168V2.50001C8.33301 2.05798 8.5086 1.63406 8.82116 1.3215C9.13372 1.00894 9.55765 0.833344 9.99967 0.833344C10.4417 0.833344 10.8656 1.00894 11.1782 1.3215C11.4907 1.63406 11.6663 2.05798 11.6663 2.50001V2.57501C11.6674 2.84317 11.7469 3.10516 11.8949 3.32873C12.043 3.55231 12.2532 3.72771 12.4997 3.83334C12.751 3.94427 13.0298 3.97736 13.3002 3.92835C13.5705 3.87933 13.8199 3.75046 14.0163 3.55834L14.0663 3.50834C14.2211 3.35338 14.4049 3.23045 14.6073 3.14658C14.8096 3.0627 15.0265 3.01953 15.2455 3.01953C15.4645 3.01953 15.6814 3.0627 15.8837 3.14658C16.0861 3.23045 16.2699 3.35338 16.4247 3.50834C16.5796 3.66313 16.7026 3.84695 16.7864 4.04928C16.8703 4.25161 16.9135 4.46848 16.9135 4.68751C16.9135 4.90654 16.8703 5.12341 16.7864 5.32574C16.7026 5.52807 16.5796 5.71189 16.4247 5.86668L16.3747 5.91668C16.1826 6.11308 16.0537 6.36252 16.0047 6.63285C15.9557 6.90318 15.9887 7.182 16.0997 7.43334V7.50001C16.2053 7.74648 16.3807 7.95669 16.6043 8.10475C16.8279 8.25282 17.0899 8.33227 17.358 8.33334H17.4997C17.9417 8.33334 18.3656 8.50894 18.6782 8.8215C18.9907 9.13406 19.1663 9.55798 19.1663 10C19.1663 10.442 18.9907 10.866 18.6782 11.1785C18.3656 11.4911 17.9417 11.6667 17.4997 11.6667H17.4247C17.1565 11.6677 16.8945 11.7472 16.671 11.8953C16.4474 12.0433 16.272 12.2535 16.1663 12.5V12.5Z" stroke="#6B7280" stroke-width="1.8" stroke-linecap="round" stroke-linejoin="round"/>
</g>
<defs>
<clipPath id="clip0_17_866">
<rect width="20" height="20" fill="white" transform="translate(-0.000244141)"/>
</clipPath>
</defs>
</svg>
